icons/github.svg

<svg height="32" viewBox="0 0 32 32" width="32" xmlns="http://www.w3.org/2000/svg"><path d="m15.9985267 0c-8.83415701 0-15.9985267 7.3446728-15.9985267 16.4054189 0 7.2479926 4.58405721 13.3962481 10.9420179 15.5655098.8005156.1510628 1.0922373-.3555011 1.0922373-.790562 0-.3887349-.0137512-1.4209973-.021609-2.7896261-4.45047425.9909719-5.38948404-2.1994742-5.38948404-2.1994742-.72783081-1.8953345-1.77685012-2.3998842-1.77685012-2.3998842-1.45271494-1.0171561.11000952-.9970144.11000952-.9970144 1.60594248.1158148 2.4506584 1.6908961 2.4506584 1.6908961 1.42717701 2.5066352 3.74523464 1.7825409 4.65674204 1.3625864.1453697-1.0594537.5588877-1.7825409 1.0156236-2.1924246-3.55271802-.4139121-7.2881304-1.8218173-7.2881304-8.1080435 0-1.7905975.62371466-3.2559066 1.64719605-4.4019696-.16501428-.4149192-.71407963-2.08365943.15715645-4.34154458 0 0 1.34270542-.44110335 4.3993984 1.68183238 1.2759139-.36456486 2.6451395-.54584021 4.005525-.55288981 1.3594033.0070496 2.7276467.18832495 4.005525.55288981 3.0547286-2.12293573 4.3954695-1.68183238 4.3954695-1.68183238.8732005 2.25788515.3241352 3.92662538.1601032 4.34154458 1.0254458 1.146063 1.6442493 2.6113721 1.6442493 4.4019696 0 6.3023396-3.7413057 7.689096-7.3048282 8.0949514.573621.5065638 1.0853617 1.5076066 1.0853617 3.0383762 0 2.1924246-.0196446 3.9618734-.0196446 4.4996569 0 .4390892.288775.9496814 1.1000952.7895549 6.3530495-2.1742971 10.9331778-8.3185243 10.9331778-15.5645027 0-9.0607461-7.1643697-16.4054189-16.0014733-16.4054189" fill="#68737a" fill-rule="evenodd"/></svg>

<svg xmlns="http://www.w3.org/2000/svg" width="32" height="32" viewBox="0 0 32 32">
  <path fill="#68737A" fill-rule="evenodd" d="M15.9985267,0 C7.16436969,0 0,7.3446728 0,16.4054189 C0,23.6534115 4.58405721,29.801667 10.9420179,31.9709287 C11.7425335,32.1219915 12.0342552,31.6154276 12.0342552,31.1803667 C12.0342552,30.7916318 12.020504,29.7593694 12.0126462,28.3907406 C7.56217195,29.3817125 6.62316216,26.1912664 6.62316216,26.1912664 C5.89533135,24.2959319 4.84631204,23.7913822 4.84631204,23.7913822 C3.3935971,22.7742261 4.95632156,22.7943678 4.95632156,22.7943678 C6.56226404,22.9101826 7.40697996,24.4852639 7.40697996,24.4852639 C8.83415697,26.9918991 11.1522146,26.2678048 12.063722,25.8478503 C12.2090917,24.7883966 12.6226097,24.0653094 13.0793456,23.6554257 C9.52662758,23.2415136 5.7912152,21.8336084 5.7912152,15.5473822 C5.7912152,13.7567847 6.41492986,12.2914756 7.43841125,11.1454126 C7.27339697,10.7304934 6.72433162,9.06175317 7.5955677,6.80386802 C7.5955677,6.80386802 8.93827312,6.36276467 11.9949661,8.4857004 C13.27088,8.12113554 14.6401056,7.93986019 16.0004911,7.93281059 C17.3598944,7.93986019 18.7281378,8.12113554 20.0060161,8.4857004 C23.0607447,6.36276467 24.4014856,6.80386802 24.4014856,6.80386802 C25.2746861,9.06175317 24.7256208,10.7304934 24.5615888,11.1454126 C25.5870346,12.2914756 26.2058381,13.7567847 26.2058381,15.5473822 C26.2058381,21.8497218 22.4645324,23.2364782 18.9010099,23.6423336 C19.4746309,24.1488974 19.9863716,25.1499402 19.9863716,26.6807098 C19.9863716,28.8731344 19.966727,30.6425832 19.966727,31.1803667 C19.966727,31.6194559 20.255502,32.1300481 21.0668222,31.9699216 C27.4198717,29.7956245 32,23.6513973 32,16.4054189 C32,7.3446728 24.8356303,0 15.9985267,0"/>
</svg>
